svg/bell.svg

<?xml version="1.0" encoding="UTF-8"?>
<svg xmlns="http://www.w3.org/2000/svg" xmlns:xlink="http://www.w3.org/1999/xlink" width="24.381001" height="32" viewBox="0 0 24.381001 32">
<path fill="none" stroke-width="3.048" stroke-linecap="round" stroke-linejoin="round" stroke="rgb(0%, 0%, 0%)" stroke-opacity="1" stroke-miterlimit="4" d="M 12.191406 5.277344 L 12.191406 1.675781 M 12.191406 5.28125 C 16.578125 5.449219 20.039062 9.070312 20.011719 13.460938 L 20.011719 16.203125 C 20.011719 19.839844 22.855469 20.746094 22.855469 22.566406 C 22.855469 23.464844 22.855469 24.382812 22.039062 24.382812 L 2.34375 24.382812 C 1.523438 24.382812 1.523438 23.464844 1.523438 22.5625 C 1.523438 20.746094 4.367188 19.835938 4.367188 16.199219 L 4.367188 13.457031 C 4.339844 9.066406 7.804688 5.445312 12.191406 5.277344 Z M 6.917969 24.382812 C 7.214844 27.070312 9.488281 29.101562 12.191406 29.101562 C 14.890625 29.101562 17.164062 27.070312 17.460938 24.382812 Z M 6.917969 24.382812 "/>
</svg>

<svg role="img" viewBox="0 0 24.381 32" xmlns="http://www.w3.org/2000/svg"><path d="M12.191 5.277V1.676m0 3.605a8.134 8.134 0 0 1 7.82 8.18v2.742c0 3.637 2.844 4.543 2.844 6.363 0 .899 0 1.817-.816 1.817H2.344c-.82 0-.82-.918-.82-1.82 0-1.817 2.843-2.727 2.843-6.364v-2.742a8.137 8.137 0 0 1 7.824-8.18ZM6.918 24.383a5.304 5.304 0 0 0 10.543 0Zm0 0" fill="none" stroke="rgb(0%, 0%, 0%)" stroke-linecap="round" stroke-linejoin="round" stroke-width="3.048"/></svg>
